public/assets/standards/sci/co2-icon.svg

<svg width="48" height="48" viewBox="0 0 48 48" fill="none" xmlns="http://www.w3.org/2000/svg">
<g clip-path="url(#clip0_149_2647)">
<path d="M25 11.2C31.51 11.2 36.8 16.5 36.8 23C36.8 29.5 31.51 34.8 25 34.8C18.49 34.8 13.2 29.5 13.2 23C13.2 16.5 18.49 11.2 25 11.2ZM25 8.54C17.02 8.54 10.54 15.01 10.54 23C10.54 30.99 17.01 37.46 25 37.46C32.99 37.46 39.46 30.99 39.46 23C39.46 15.01 32.99 8.54 25 8.54Z" fill="#A4C352"/>
<path d="M25 3.42C35.8 3.42 44.58 12.21 44.58 23C44.58 33.79 35.79 42.58 25 42.58C14.21 42.58 5.42 33.8 5.42 23C5.42 12.2 14.2 3.42 25 3.42ZM25 0.620003C12.64 0.620003 2.62 10.64 2.62 23C2.62 35.36 12.64 45.38 25 45.38C37.36 45.38 47.38 35.36 47.38 23C47.38 10.64 37.36 0.620003 25 0.620003Z" fill="#A4C352"/>
<path d="M25 29.53C28.6064 29.53 31.53 26.6064 31.53 23C31.53 19.3936 28.6064 16.47 25 16.47C21.3936 16.47 18.47 19.3936 18.47 23C18.47 26.6064 21.3936 29.53 25 29.53Z" fill="#A4C352"/>
<path d="M20.5154 26.9136L11.5076 35.9088L12.1648 36.5669L21.1725 27.5717L20.5154 26.9136Z" fill="#006D68"/>
<path d="M12.19 35.3L5.42999 36.97L0.299988 42.09L5.96999 42.1V47.77L11.1 42.64L12.77 35.88L12.19 35.3Z" fill="#006D68"/>
<path d="M23.15 31.49L25.56 22.51L16.58 24.92L23.15 31.49Z" fill="#006D68"/>
</g>
<defs>
<clipPath id="clip0_149_2647">
<rect width="48" height="48" fill="white"/>
</clipPath>
</defs>
</svg>

<svg xmlns="http://www.w3.org/2000/svg" width="48" height="48" fill="none" viewBox="0 0 48 48"><g clip-path="url(#a)"><path fill="#a4c352" d="M25 11.2c6.51 0 11.8 5.3 11.8 11.8S31.51 34.8 25 34.8 13.2 29.5 13.2 23 18.49 11.2 25 11.2m0-2.66c-7.98 0-14.46 6.47-14.46 14.46S17.01 37.46 25 37.46 39.46 30.99 39.46 23 32.99 8.54 25 8.54"/><path fill="#a4c352" d="M25 3.42c10.8 0 19.58 8.79 19.58 19.58S35.79 42.58 25 42.58 5.42 33.8 5.42 23 14.2 3.42 25 3.42m0-2.8C12.64.62 2.62 10.64 2.62 23S12.64 45.38 25 45.38 47.38 35.36 47.38 23 37.36.62 25 .62"/><path fill="#a4c352" d="M25 29.53a6.53 6.53 0 1 0 0-13.06 6.53 6.53 0 0 0 0 13.06"/><path fill="#006d68" d="m20.515 26.914-9.007 8.995.657.658 9.008-8.995z"/><path fill="#006d68" d="m12.19 35.3-6.76 1.67L.3 42.09l5.67.01v5.67l5.13-5.13 1.67-6.76zm10.96-3.81 2.41-8.98-8.98 2.41z"/></g><defs><clipPath id="a"><path fill="#fff" d="M0 0h48v48H0z"/></clipPath></defs></svg>
